; G-Code generated by Simplify3D(R) Version 3.0.2
; Sep 25, 2016 at 7:12:05 
; Settings Summary
;   processName,Process1
;   applyToModels,SlatHolder
;   profileName,German RepRap X350 (modified)
;   profileVersion,2016-05-13 16:45:38
;   baseProfile,
;   printMaterial,PLA
;   printQuality,Medium
;   printExtruders,
;   extruderName,Primary Extruder
;   extruderToolheadNumber,0
;   extruderDiameter,0.4
;   extruderAutoWidth,0
;   extruderWidth,0.4
;   extrusionMultiplier,1
;   extruderUseRetract,1
;   extruderRetractionDistance,0.6
;   extruderExtraRestartDistance,0
;   extruderRetractionZLift,0
;   extruderRetractionSpeed,6000
;   extruderUseCoasting,1
;   extruderCoastingDistance,0.5
;   extruderUseWipe,0
;   extruderWipeDistance,5
;   primaryExtruder,0
;   layerHeight,0.2
;   topSolidLayers,4
;   bottomSolidLayers,3
;   perimeterOutlines,3
;   printPerimetersInsideOut,1
;   startPointOption,2
;   startPointOriginX,0
;   startPointOriginY,0
;   startPointOriginZ,300
;   sequentialIslands,0
;   spiralVaseMode,0
;   firstLayerHeightPercentage,100
;   firstLayerWidthPercentage,100
;   firstLayerUnderspeed,0.4
;   useRaft,0
;   raftExtruder,0
;   raftLayers,3
;   raftOffset,3
;   raftSeparationDistance,0.1
;   raftInfill,85
;   disableRaftBaseLayers,0
;   useSkirt,1
;   skirtExtruder,0
;   skirtLayers,1
;   skirtOutlines,2
;   skirtOffset,6
;   usePrimePillar,0
;   primePillarExtruder,999
;   primePillarWidth,12
;   primePillarLocation,7
;   primePillarSpeedMultiplier,1
;   useOozeShield,0
;   oozeShieldExtruder,999
;   oozeShieldOffset,2
;   oozeShieldOutlines,1
;   oozeShieldSidewallShape,1
;   oozeShieldSidewallAngle,30
;   oozeShieldSpeedMultiplier,1
;   infillExtruder,0
;   internalInfillPattern,Rectilinear
;   externalInfillPattern,Rectilinear
;   infillPercentage,30
;   outlineOverlapPercentage,15
;   infillExtrusionWidthPercentage,140
;   minInfillLength,3
;   infillLayerInterval,1
;   infillAngles,45,-45
;   overlapInfillAngles,0
;   generateSupport,0
;   supportExtruder,0
;   supportInfillPercentage,30
;   supportExtraInflation,1
;   denseSupportLayers,0
;   denseSupportInfillPercentage,70
;   supportLayerInterval,1
;   supportHorizontalPartOffset,0.6
;   supportUpperSeparationLayers,1
;   supportLowerSeparationLayers,1
;   supportType,0
;   supportGridSpacing,4
;   maxOverhangAngle,60
;   supportAngles,45
;   temperatureName,Primary Extruder,Heated Bed
;   temperatureNumber,0,0
;   temperatureSetpointCount,1,1
;   temperatureSetpointLayers,1,1
;   temperatureSetpointTemperatures,195,58
;   temperatureStabilizeAtStartup,1,1
;   temperatureHeatedBed,0,1
;   temperatureRelayBetweenLayers,0,0
;   temperatureRelayBetweenLoops,0,0
;   fanLayers,1,3
;   fanSpeeds,0,75
;   blipFanToFullPower,0
;   adjustSpeedForCooling,0
;   minSpeedLayerTime,15
;   minCoolingSpeedSlowdown,20
;   increaseFanForCooling,1
;   minFanLayerTime,45
;   maxCoolingFanSpeed,100
;   increaseFanForBridging,0
;   bridgingFanSpeed,100
;   use5D,1
;   relativeEdistances,0
;   allowEaxisZeroing,1
;   independentExtruderAxes,0
;   includeM10123,0
;   stickySupport,1
;   applyToolheadOffsets,0
;   gcodeXoffset,0
;   gcodeYoffset,0
;   gcodeZoffset,0
;   overrideMachineDefinition,1
;   machineTypeOverride,0
;   strokeXoverride,350
;   strokeYoverride,200
;   strokeZoverride,210
;   originOffsetXoverride,0
;   originOffsetYoverride,0
;   originOffsetZoverride,0
;   homeXdirOverride,-1
;   homeYdirOverride,-1
;   homeZdirOverride,-1
;   flipXoverride,-1
;   flipYoverride,1
;   flipZoverride,1
;   toolheadOffsets,0,0|0,0|0,0|0,0|0,0|0,0
;   overrideFirmwareConfiguration,1
;   firmwareTypeOverride,RepRap (Marlin/Repetier/Sprinter)
;   GPXconfigOverride,r2
;   baudRateOverride,250000
;   overridePrinterModels,1
;   printerModelsOverride
;   startingGcode,G28 ; home all axes,M806 S127 ; turn on housing fan to 100%
;   layerChangeGcode,
;   retractionGcode,
;   toolChangeGcode,
;   endingGcode,G28 Y0 ; home Y axis,G28 X0 ; home X axis,M104 S0 ; turn off extruder,M140 S0 ; turn off bed,M807 ; turn off housing fan,M107 ; turn off fan,M84 ; disable motors
;   createX3G,0
;   celebration,0
;   celebrationSong,Random Song
;   createMB5G,0
;   postProcessing,
;   defaultSpeed,3000
;   outlineUnderspeed,0.75
;   solidInfillUnderspeed,0.75
;   supportUnderspeed,0.75
;   rapidXYspeed,6000
;   rapidZspeed,300
;   minBridgingArea,50
;   bridgingExtraInflation,0
;   bridgingExtrusionMultiplier,1.05
;   bridgingSpeedMultiplier,0.8
;   filamentDiameter,1.75
;   filamentPricePerKg,34
;   filamentDensity,1.25
;   useMinPrintHeight,0
;   minPrintHeight,0
;   useMaxPrintHeight,0
;   maxPrintHeight,0
;   useDiaphragm,0
;   diaphragmLayerInterval,20
;   robustSlicing,1
;   mergeAllIntoSolid,0
;   onlyRetractWhenCrossingOutline,0
;   retractBetweenLayers,0
;   useRetractionMinTravel,1
;   retractionMinTravel,3
;   retractWhileWiping,0
;   onlyWipeOutlines,1
;   avoidCrossingOutline,0
;   maxMovementDetourFactor,3
;   toolChangeRetractionDistance,12
;   toolChangeExtraRestartDistance,-0.5
;   toolChangeRetractionSpeed,600
;   allowThinWallGapFill,1
;   thinWallAllowedOverlapPercentage,15
;   horizontalSizeCompensation,0
G90
M82
M106 S0
M140 S58
M190 S58
M104 S195 T0
M109 S195 T0
G28 ; home all axes
M806 S127 ; turn on housing fan to 100%
G92 E0
G1 E-0.6000 F6000
G1 Z0.200 F300
; layer 1, Z = 0.2
T0
; tool H0.200 W0.400
; skirt
G1 X139.491 Y83.025 F6000
G1 E0.0000 F1800
G92 E0
G1 X143.175 Y79.341 E0.1733 F1200
G1 X143.395 Y79.250 E0.1812
G1 X206.605 Y79.250 E2.2835
G1 X206.825 Y79.341 E2.2915
G1 X210.509 Y83.025 E2.4647
G1 X210.600 Y83.245 E2.4727
G1 X210.600 Y116.755 E3.5872
G1 X210.509 Y116.975 E3.5951
G1 X206.825 Y120.659 E3.7684
G1 X206.605 Y120.750 E3.7763
G1 X143.395 Y120.750 E5.8787
G1 X143.175 Y120.659 E5.8866
G1 X139.491 Y116.975 E6.0599
G1 X139.400 Y116.755 E6.0678
G1 X139.400 Y83.507 E7.1737
G1 X139.400 Y83.245 F1200
G1 X139.491 Y83.025 F1200
G1 X139.830 Y83.251 F6000
G92 E0
G1 X143.401 Y79.680 E0.1680 F1200
G1 X143.475 Y79.650 E0.1706
G1 X206.525 Y79.650 E2.2677
G1 X206.599 Y79.680 E2.2703
G1 X210.170 Y83.251 E2.4383
G1 X210.200 Y83.325 E2.4409
G1 X210.200 Y116.675 E3.5502
G1 X210.170 Y116.749 E3.5528
G1 X206.599 Y120.320 E3.7208
G1 X206.525 Y120.350 E3.7234
G1 X143.475 Y120.350 E5.8205
G1 X143.401 Y120.320 E5.8231
G1 X139.830 Y116.749 E5.9911
G1 X139.800 Y116.675 E5.9937
G1 X139.800 Y83.745 E7.0890
G1 X139.800 Y83.325 F1200
G1 X139.830 Y83.251 F1200
G92 E0
G1 E-0.6000 F6000
; inner perimeter
G1 X147.000 Y86.850 F6000
G1 E0.0000 F6000
G92 E0
G1 X203.000 Y86.850 E1.8626 F1100
G1 X203.000 Y113.150 E2.7373
G1 X147.000 Y113.150 E4.5999
G1 X147.000 Y87.350 E5.4580
G1 X147.000 Y86.850 F1100
; inner perimeter
G1 X146.600 Y86.450 F6000
G92 E0
G1 X203.400 Y86.450 E1.8892 F1000
G1 X203.400 Y113.550 E2.7905
G1 X146.600 Y113.550 E4.6797
G1 X146.600 Y86.950 E5.5644
G1 X146.600 Y86.450 F1000
; outer perimeter
G1 X146.200 Y86.050 F6000
G92 E0
G1 X203.800 Y86.050 E1.9158 F900
G1 X203.800 Y113.950 E2.8437
G1 X146.200 Y113.950 E4.7595
G1 X146.200 Y86.550 E5.6709
G1 X146.200 Y86.050 F900
; solid layer
G1 X147.340 Y87.496 F6000
G92 E0
G1 X147.646 Y87.190 E0.0144 F900
G1 X148.212 Y87.190 E0.0332
G1 X147.340 Y88.062 E0.0742
G1 X147.340 Y88.628 E0.0931
G1 X148.778 Y87.190 E0.1607
G1 X149.343 Y87.190 E0.1795
G1 X147.340 Y89.193 E0.2737
G1 X147.340 Y89.759 E0.2926
G1 X149.909 Y87.190 E0.4134
G1 X150.475 Y87.190 E0.4322
G1 X147.340 Y90.325 E0.5797
G1 X147.340 Y90.890 E0.5985
G1 X151.040 Y87.190 E0.7725
G1 X151.606 Y87.190 E0.7914
G1 X147.340 Y91.456 E0.9920
G1 X147.340 Y92.022 E1.0108
G1 X152.172 Y87.190 E1.2381
G1 X152.738 Y87.190 E1.2569
G1 X147.340 Y92.588 E1.5108
G1 X147.340 Y93.153 E1.5296
G1 X153.303 Y87.190 E1.8101
G1 X153.869 Y87.190 E1.8289
G1 X147.340 Y93.719 E2.1360
G1 X147.340 Y94.285 E2.1548
G1 X154.435 Y87.190 E2.4886
G1 X155.000 Y87.190 E2.5074
G1 X147.340 Y94.850 E2.8677
G1 X147.340 Y95.416 E2.8865
G1 X155.566 Y87.190 E3.2734
G1 X156.132 Y87.190 E3.2922
G1 X147.340 Y95.982 E3.7058
G1 X147.340 Y96.547 E3.7246
G1 X156.697 Y87.190 E4.1647
G1 X157.263 Y87.190 E4.1835
G1 X147.340 Y97.113 E4.6503
G1 X147.340 Y97.679 E4.6691
G1 X157.829 Y87.190 E5.1625
G1 X158.394 Y87.190 E5.1813
G1 X147.340 Y98.244 E5.7012
G1 X147.340 Y98.810 E5.7201
G1 X158.960 Y87.190 E6.2666
G1 X159.526 Y87.190 E6.2854
G1 X147.340 Y99.376 E6.8586
G1 X147.340 Y99.941 E6.8774
G1 X160.091 Y87.190 E7.4772
G1 X160.657 Y87.190 E7.4960
G1 X147.340 Y100.507 E8.1224
G1 X147.340 Y101.073 E8.1413
G1 X161.223 Y87.190 E8.7943
G1 X161.789 Y87.190 E8.8131
G1 X147.340 Y101.638 E9.4927
G1 X147.340 Y102.204 E9.5115
G1 X162.354 Y87.190 E10.2177
G1 X162.920 Y87.190 E10.2365
G1 X147.340 Y102.770 E10.9694
G1 X147.340 Y103.336 E10.9882
G1 X163.486 Y87.190 E11.7476
G1 X164.051 Y87.190 E11.7664
G1 X147.340 Y103.901 E12.5525
G1 X147.340 Y104.467 E12.5713
G1 X164.617 Y87.190 E13.3840
G1 X165.183 Y87.190 E13.4028
G1 X147.340 Y105.033 E14.2420
G1 X147.340 Y105.598 E14.2608
G1 X165.748 Y87.190 E15.1267
G1 X166.314 Y87.190 E15.1455
G1 X147.340 Y106.164 E16.0380
G1 X147.340 Y106.730 E16.0568
G1 X166.880 Y87.190 E16.9759
G1 X167.445 Y87.190 E16.9947
G1 X147.340 Y107.295 E17.9404
G1 X147.340 Y107.861 E17.9592
G1 X168.011 Y87.190 E18.9315
G1 X168.577 Y87.190 E18.9504
G1 X147.340 Y108.427 E19.9493
G1 X147.340 Y108.992 E19.9681
G1 X169.142 Y87.190 E20.9936
G1 X169.708 Y87.190 E21.0124
G1 X147.340 Y109.558 E22.0645
G1 X147.340 Y110.124 E22.0834
G1 X170.274 Y87.190 E23.1621
G1 X170.839 Y87.190 E23.1809
G1 X147.340 Y110.689 E24.2862
G1 X147.340 Y111.255 E24.3051
G1 X171.405 Y87.190 E25.4370
G1 X171.971 Y87.190 E25.4558
G1 X147.340 Y111.821 E26.6144
G1 X147.340 Y112.387 E26.6332
G1 X172.537 Y87.190 E27.8184
G1 X173.102 Y87.190 E27.8372
G1 X147.482 Y112.810 E29.0423
G1 X148.048 Y112.810 E29.0611
G1 X173.668 Y87.190 E30.2662
G1 X174.234 Y87.190 E30.2850
G1 X148.614 Y112.810 E31.4901
G1 X149.179 Y112.810 E31.5089
G1 X174.799 Y87.190 E32.7140
G1 X175.365 Y87.190 E32.7328
G1 X149.745 Y112.810 E33.9379
G1 X150.311 Y112.810 E33.9567
G1 X175.931 Y87.190 E35.1618
G1 X176.496 Y87.190 E35.1806
G1 X150.876 Y112.810 E36.3857
G1 X151.442 Y112.810 E36.4045
G1 X177.062 Y87.190 E37.6096
G1 X177.628 Y87.190 E37.6284
G1 X152.008 Y112.810 E38.8335
G1 X152.573 Y112.810 E38.8523
G1 X178.193 Y87.190 E40.0574
G1 X178.759 Y87.190 E40.0762
G1 X153.139 Y112.810 E41.2813
G1 X153.705 Y112.810 E41.3001
G1 X179.325 Y87.190 E42.5052
G1 X179.890 Y87.190 E42.5240
G1 X154.270 Y112.810 E43.7291
G1 X154.836 Y112.810 E43.7479
G1 X180.456 Y87.190 E44.9530
G1 X181.022 Y87.190 E44.9718
G1 X155.402 Y112.810 E46.1769
G1 X155.967 Y112.810 E46.1957
G1 X181.587 Y87.190 E47.4008
G1 X182.153 Y87.190 E47.4196
G1 X156.533 Y112.810 E48.6247
G1 X157.099 Y112.810 E48.6435
G1 X182.719 Y87.190 E49.8486
G1 X183.285 Y87.190 E49.8674
G1 X157.665 Y112.810 E51.0725
G1 X158.230 Y112.810 E51.0913
G1 X183.850 Y87.190 E52.2964
G1 X184.416 Y87.190 E52.3152
G1 X158.796 Y112.810 E53.5203
G1 X159.362 Y112.810 E53.5391
G1 X184.982 Y87.190 E54.7442
G1 X185.547 Y87.190 E54.7630
G1 X159.927 Y112.810 E55.9681
G1 X160.493 Y112.810 E55.9869
G1 X186.113 Y87.190 E57.1920
G1 X186.679 Y87.190 E57.2108
G1 X161.059 Y112.810 E58.4159
G1 X161.624 Y112.810 E58.4347
G1 X187.244 Y87.190 E59.6398
G1 X187.810 Y87.190 E59.6586
G1 X162.190 Y112.810 E60.8637
G1 X162.756 Y112.810 E60.8825
G1 X188.376 Y87.190 E62.0876
G1 X188.941 Y87.190 E62.1064
G1 X163.321 Y112.810 E63.3115
G1 X163.887 Y112.810 E63.3303
G1 X189.507 Y87.190 E64.5354
G1 X190.073 Y87.190 E64.5542
G1 X164.453 Y112.810 E65.7593
G1 X165.018 Y112.810 E65.7781
G1 X190.638 Y87.190 E66.9832
G1 X191.204 Y87.190 E67.0020
G1 X165.584 Y112.810 E68.2071
G1 X166.150 Y112.810 E68.2259
G1 X191.770 Y87.190 E69.4310
G1 X192.336 Y87.190 E69.4498
G1 X166.716 Y112.810 E70.6549
G1 X167.281 Y112.810 E70.6737
G1 X192.901 Y87.190 E71.8788
G1 X193.467 Y87.190 E71.8976
G1 X167.847 Y112.810 E73.1027
G1 X168.413 Y112.810 E73.1215
G1 X194.033 Y87.190 E74.3266
G1 X194.598 Y87.190 E74.3454
G1 X168.978 Y112.810 E75.5505
G1 X169.544 Y112.810 E75.5693
G1 X195.164 Y87.190 E76.7744
G1 X195.730 Y87.190 E76.7932
G1 X170.110 Y112.810 E77.9983
G1 X170.675 Y112.810 E78.0171
G1 X196.295 Y87.190 E79.2222
G1 X196.861 Y87.190 E79.2410
G1 X171.241 Y112.810 E80.4461
G1 X171.807 Y112.810 E80.4649
G1 X197.427 Y87.190 E81.6700
G1 X197.992 Y87.190 E81.6888
G1 X172.372 Y112.810 E82.8939
G1 X172.938 Y112.810 E82.9128
G1 X198.558 Y87.190 E84.1178
G1 X199.124 Y87.190 E84.1367
G1 X173.504 Y112.810 E85.3417
G1 X174.069 Y112.810 E85.3606
G1 X199.689 Y87.190 E86.5656
G1 X200.255 Y87.190 E86.5845
G1 X174.635 Y112.810 E87.7895
G1 X175.201 Y112.810 E87.8084
G1 X200.821 Y87.190 E89.0134
G1 X201.386 Y87.190 E89.0323
G1 X175.766 Y112.810 E90.2373
G1 X176.332 Y112.810 E90.2562
G1 X201.952 Y87.190 E91.4612
G1 X202.518 Y87.190 E91.4801
G1 X176.898 Y112.810 E92.6851
G1 X177.464 Y112.810 E92.7040
G1 X202.660 Y87.614 E93.8891
G1 X202.660 Y88.179 E93.9079
G1 X178.029 Y112.810 E95.0665
G1 X178.595 Y112.810 E95.0853
G1 X202.660 Y88.745 E96.2173
G1 X202.660 Y89.311 E96.2361
G1 X179.161 Y112.810 E97.3414
G1 X179.726 Y112.810 E97.3602
G1 X202.660 Y89.876 E98.4390
G1 X202.660 Y90.442 E98.4578
G1 X180.292 Y112.810 E99.5099
G1 X180.858 Y112.810 E99.5287
G1 X202.660 Y91.008 E100.5542
G1 X202.660 Y91.573 E100.5730
G1 X181.423 Y112.810 E101.5720
G1 X181.989 Y112.810 E101.5908
G1 X202.660 Y92.139 E102.5631
G1 X202.660 Y92.705 E102.5819
G1 X182.555 Y112.810 E103.5276
G1 X183.120 Y112.810 E103.5464
G1 X202.660 Y93.270 E104.4655
G1 X202.660 Y93.836 E104.4843
G1 X183.686 Y112.810 E105.3768
G1 X184.252 Y112.810 E105.3956
G1 X202.660 Y94.402 E106.2614
G1 X202.660 Y94.967 E106.2803
G1 X184.817 Y112.810 E107.1195
G1 X185.383 Y112.810 E107.1383
G1 X202.660 Y95.533 E107.9510
G1 X202.660 Y96.099 E107.9698
G1 X185.949 Y112.810 E108.7558
G1 X186.515 Y112.810 E108.7747
G1 X202.660 Y96.665 E109.5341
G1 X202.660 Y97.230 E109.5529
G1 X187.080 Y112.810 E110.2857
G1 X187.646 Y112.810 E110.3045
G1 X202.660 Y97.796 E111.0108
G1 X202.660 Y98.362 E111.0296
G1 X188.212 Y112.810 E111.7092
G1 X188.777 Y112.810 E111.7280
G1 X202.660 Y98.927 E112.3810
G1 X202.660 Y99.493 E112.3998
G1 X189.343 Y112.810 E113.0262
G1 X189.909 Y112.810 E113.0450
G1 X202.660 Y100.059 E113.6448
G1 X202.660 Y100.624 E113.6636
G1 X190.474 Y112.810 E114.2368
G1 X191.040 Y112.810 E114.2556
G1 X202.660 Y101.190 E114.8022
G1 X202.660 Y101.756 E114.8210
G1 X191.606 Y112.810 E115.3410
G1 X192.171 Y112.810 E115.3598
G1 X202.660 Y102.321 E115.8531
G1 X202.660 Y102.887 E115.8720
G1 X192.737 Y112.810 E116.3387
G1 X193.303 Y112.810 E116.3575
G1 X202.660 Y103.453 E116.7977
G1 X202.660 Y104.018 E116.8165
G1 X193.868 Y112.810 E117.2300
G1 X194.434 Y112.810 E117.2488
G1 X202.660 Y104.584 E117.6357
G1 X202.660 Y105.150 E117.6545
G1 X195.000 Y112.810 E118.0149
G1 X195.565 Y112.810 E118.0337
G1 X202.660 Y105.715 E118.3674
G1 X202.660 Y106.281 E118.3862
G1 X196.131 Y112.810 E118.6933
G1 X196.697 Y112.810 E118.7121
G1 X202.660 Y106.847 E118.9926
G1 X202.660 Y107.413 E119.0114
G1 X197.263 Y112.810 E119.2653
G1 X197.828 Y112.810 E119.2841
G1 X202.660 Y107.978 E119.5114
G1 X202.660 Y108.544 E119.5302
G1 X198.394 Y112.810 E119.7309
G1 X198.960 Y112.810 E119.7497
G1 X202.660 Y109.110 E119.9237
G1 X202.660 Y109.675 E119.9425
G1 X199.525 Y112.810 E120.0900
G1 X200.091 Y112.810 E120.1088
G1 X202.660 Y110.241 E120.2296
G1 X202.660 Y110.807 E120.2485
G1 X200.657 Y112.810 E120.3427
G1 X201.222 Y112.810 E120.3615
G1 X202.660 Y111.372 E120.4291
G1 X202.660 Y111.938 E120.4479
